X:1
T: Mrs. Douglas of Tiliwhilly's Strathspey
C:
R:Strathspey
Q: 128
K:F
M:4/4
L:1/16
|:d2|c3B A3f cA3 f3d|c3A F2A2 G3F G2A2|c3B A2f2 cA3 f3g|af3 g3a f4 f2d2|
c3B A3f cA3 f3d|c3A F2A2 G3F G2A2|c3B A2f2 cA3 f3g|af3 g3a f4 f2fg|
a3f g2a2 f3c d2f2|c2A2 f2d2 c3A G2fg|a3f g2a2 f2c2 d2f2|c3f a2g2 f2e2 f2fg|
a2f2 g2a2 f2c2 d2f2|c2A2 f2d2 c3A G2A2|F3c Ac3 dcde f3g|af3 g3a f4 f2:|
